(G-CODE GENERATED BY FLATCAM v8.991 - www.flatcam.org - Version Date: 2019/12/27)

(Name: Perçage01-Edge.Cuts.gbr_1_iso_cnc)
(Type: G-code from Geometry)
(Units: MM)

(Created on Friday, 12 February 2021 at 16:37)

(TOOL DIAMETER: 1.8 mm)
(Feedrate: 60.0 mm/min)
(Feedrate_Z: 60.0 mm/min)
(Feedrate rapids 1500.0 mm/min)

(Z_Cut: -10.799999999999978 mm)
(DepthPerCut: 0.8 mm <=>14 passes)
(Z_Move: 4.999999999999998 mm)
(Z Toolchange: 15.0 mm)
(X,Y Toolchange: 0.0000, 0.0000 mm)
(Z Start: None mm)
(Z End: 15.0 mm)
(Steps per circle: 64)
(Preprocessor Geometry: default)

(X range:   20.9960 ...  141.9990  mm)
(Y range: -113.2680 ...  -31.5000  mm)

(Spindle Speed: 1000 RPM)
G21
G90
G94




G01 F60.00
G00 Z5.0000

M03 S1000
G00 X21.0249 Y-32.7182
G01 F60.00
G01 Z-0.8000
G01 F60.00
G01 X20.9960 Y-77.4700
G01 X20.9960 Y-96.1390
G01 X20.9974 Y-96.1905
G01 X21.0061 Y-96.2784
G01 X21.0071 Y-96.2857
G01 X21.0250 Y-96.3747
G01 X21.0250 Y-112.0493
G01 X21.0116 Y-112.1164
G01 X21.0102 Y-112.1261
G01 X21.0015 Y-112.2140
G01 X21.0010 Y-112.2238
G01 X21.0010 Y-112.3122
G01 X21.0015 Y-112.3220
G01 X21.0102 Y-112.4099
G01 X21.0116 Y-112.4196
G01 X21.0288 Y-112.5062
G01 X21.0312 Y-112.5157
G01 X21.0569 Y-112.6002
G01 X21.0602 Y-112.6095
G01 X21.0940 Y-112.6911
G01 X21.0982 Y-112.7000
G01 X21.1398 Y-112.7779
G01 X21.1449 Y-112.7863
G01 X21.1939 Y-112.8597
G01 X21.1998 Y-112.8676
G01 X21.2558 Y-112.9359
G01 X21.2624 Y-112.9431
G01 X21.3249 Y-113.0056
G01 X21.3321 Y-113.0122
G01 X21.4004 Y-113.0682
G01 X21.4083 Y-113.0741
G01 X21.4817 Y-113.1231
G01 X21.4901 Y-113.1282
G01 X21.5680 Y-113.1698
G01 X21.5769 Y-113.1740
G01 X21.6585 Y-113.2078
G01 X21.6678 Y-113.2111
G01 X21.7523 Y-113.2368
G01 X21.7618 Y-113.2392
G01 X21.8484 Y-113.2564
G01 X21.8581 Y-113.2578
G01 X21.9460 Y-113.2665
G01 X22.0000 Y-113.2680
G01 X141.0000 Y-113.2680
G01 X141.0540 Y-113.2665
G01 X141.1419 Y-113.2578
G01 X141.1516 Y-113.2564
G01 X141.2382 Y-113.2392
G01 X141.2477 Y-113.2368
G01 X141.3322 Y-113.2111
G01 X141.3415 Y-113.2078
G01 X141.4231 Y-113.1740
G01 X141.4320 Y-113.1698
G01 X141.5099 Y-113.1282
G01 X141.5183 Y-113.1231
G01 X141.5917 Y-113.0741
G01 X141.5996 Y-113.0682
G01 X141.6679 Y-113.0122
G01 X141.6751 Y-113.0056
G01 X141.7376 Y-112.9431
G01 X141.7442 Y-112.9359
G01 X141.8002 Y-112.8676
G01 X141.8061 Y-112.8597
G01 X141.8551 Y-112.7863
G01 X141.8602 Y-112.7779
G01 X141.9018 Y-112.7000
G01 X141.9060 Y-112.6911
G01 X141.9398 Y-112.6095
G01 X141.9431 Y-112.6002
G01 X141.9688 Y-112.5157
G01 X141.9712 Y-112.5062
G01 X141.9884 Y-112.4196
G01 X141.9898 Y-112.4099
G01 X141.9985 Y-112.3220
G01 X141.9990 Y-112.3122
G01 X141.9990 Y-112.2238
G01 X141.9985 Y-112.2140
G01 X141.9898 Y-112.1261
G01 X141.9884 Y-112.1164
G01 X141.9750 Y-112.0493
G01 X141.9773 Y-32.7071
G01 X141.9884 Y-32.6516
G01 X141.9898 Y-32.6419
G01 X141.9985 Y-32.5540
G01 X141.9990 Y-32.5442
G01 X141.9990 Y-32.4558
G01 X141.9985 Y-32.4460
G01 X141.9898 Y-32.3581
G01 X141.9884 Y-32.3484
G01 X141.9712 Y-32.2618
G01 X141.9688 Y-32.2523
G01 X141.9431 Y-32.1678
G01 X141.9398 Y-32.1585
G01 X141.9060 Y-32.0769
G01 X141.9018 Y-32.0680
G01 X141.8602 Y-31.9901
G01 X141.8551 Y-31.9817
G01 X141.8061 Y-31.9083
G01 X141.8002 Y-31.9004
G01 X141.7442 Y-31.8321
G01 X141.7376 Y-31.8249
G01 X141.6751 Y-31.7624
G01 X141.6679 Y-31.7558
G01 X141.5996 Y-31.6998
G01 X141.5917 Y-31.6939
G01 X141.5183 Y-31.6449
G01 X141.5099 Y-31.6398
G01 X141.4320 Y-31.5982
G01 X141.4231 Y-31.5940
G01 X141.3415 Y-31.5602
G01 X141.3322 Y-31.5569
G01 X141.2477 Y-31.5312
G01 X141.2382 Y-31.5288
G01 X141.1516 Y-31.5116
G01 X141.1419 Y-31.5102
G01 X141.0540 Y-31.5015
G01 X141.0000 Y-31.5000
G01 X22.0000 Y-31.5000
G01 X21.9460 Y-31.5015
G01 X21.8581 Y-31.5102
G01 X21.8484 Y-31.5116
G01 X21.7618 Y-31.5288
G01 X21.7523 Y-31.5312
G01 X21.6678 Y-31.5569
G01 X21.6585 Y-31.5602
G01 X21.5769 Y-31.5940
G01 X21.5680 Y-31.5982
G01 X21.4901 Y-31.6398
G01 X21.4817 Y-31.6449
G01 X21.4083 Y-31.6939
G01 X21.4004 Y-31.6998
G01 X21.3321 Y-31.7558
G01 X21.3249 Y-31.7624
G01 X21.2624 Y-31.8249
G01 X21.2558 Y-31.8321
G01 X21.1998 Y-31.9004
G01 X21.1939 Y-31.9083
G01 X21.1449 Y-31.9817
G01 X21.1398 Y-31.9901
G01 X21.0982 Y-32.0680
G01 X21.0940 Y-32.0769
G01 X21.0602 Y-32.1585
G01 X21.0569 Y-32.1678
G01 X21.0312 Y-32.2523
G01 X21.0288 Y-32.2618
G01 X21.0116 Y-32.3484
G01 X21.0102 Y-32.3581
G01 X21.0015 Y-32.4460
G01 X21.0010 Y-32.4558
G01 X21.0010 Y-32.5442
G01 X21.0015 Y-32.5540
G01 X21.0102 Y-32.6419
G01 X21.0116 Y-32.6516
G01 X21.0249 Y-32.7182
G00 X21.0249 Y-32.7182
G01 F60.00
G01 Z-1.6000
G01 F60.00
G01 X20.9960 Y-77.4700
G01 X20.9960 Y-96.1390
G01 X20.9974 Y-96.1905
G01 X21.0061 Y-96.2784
G01 X21.0071 Y-96.2857
G01 X21.0250 Y-96.3747
G01 X21.0250 Y-112.0493
G01 X21.0116 Y-112.1164
G01 X21.0102 Y-112.1261
G01 X21.0015 Y-112.2140
G01 X21.0010 Y-112.2238
G01 X21.0010 Y-112.3122
G01 X21.0015 Y-112.3220
G01 X21.0102 Y-112.4099
G01 X21.0116 Y-112.4196
G01 X21.0288 Y-112.5062
G01 X21.0312 Y-112.5157
G01 X21.0569 Y-112.6002
G01 X21.0602 Y-112.6095
G01 X21.0940 Y-112.6911
G01 X21.0982 Y-112.7000
G01 X21.1398 Y-112.7779
G01 X21.1449 Y-112.7863
G01 X21.1939 Y-112.8597
G01 X21.1998 Y-112.8676
G01 X21.2558 Y-112.9359
G01 X21.2624 Y-112.9431
G01 X21.3249 Y-113.0056
G01 X21.3321 Y-113.0122
G01 X21.4004 Y-113.0682
G01 X21.4083 Y-113.0741
G01 X21.4817 Y-113.1231
G01 X21.4901 Y-113.1282
G01 X21.5680 Y-113.1698
G01 X21.5769 Y-113.1740
G01 X21.6585 Y-113.2078
G01 X21.6678 Y-113.2111
G01 X21.7523 Y-113.2368
G01 X21.7618 Y-113.2392
G01 X21.8484 Y-113.2564
G01 X21.8581 Y-113.2578
G01 X21.9460 Y-113.2665
G01 X22.0000 Y-113.2680
G01 X141.0000 Y-113.2680
G01 X141.0540 Y-113.2665
G01 X141.1419 Y-113.2578
G01 X141.1516 Y-113.2564
G01 X141.2382 Y-113.2392
G01 X141.2477 Y-113.2368
G01 X141.3322 Y-113.2111
G01 X141.3415 Y-113.2078
G01 X141.4231 Y-113.1740
G01 X141.4320 Y-113.1698
G01 X141.5099 Y-113.1282
G01 X141.5183 Y-113.1231
G01 X141.5917 Y-113.0741
G01 X141.5996 Y-113.0682
G01 X141.6679 Y-113.0122
G01 X141.6751 Y-113.0056
G01 X141.7376 Y-112.9431
G01 X141.7442 Y-112.9359
G01 X141.8002 Y-112.8676
G01 X141.8061 Y-112.8597
G01 X141.8551 Y-112.7863
G01 X141.8602 Y-112.7779
G01 X141.9018 Y-112.7000
G01 X141.9060 Y-112.6911
G01 X141.9398 Y-112.6095
G01 X141.9431 Y-112.6002
G01 X141.9688 Y-112.5157
G01 X141.9712 Y-112.5062
G01 X141.9884 Y-112.4196
G01 X141.9898 Y-112.4099
G01 X141.9985 Y-112.3220
G01 X141.9990 Y-112.3122
G01 X141.9990 Y-112.2238
G01 X141.9985 Y-112.2140
G01 X141.9898 Y-112.1261
G01 X141.9884 Y-112.1164
G01 X141.9750 Y-112.0493
G01 X141.9773 Y-32.7071
G01 X141.9884 Y-32.6516
G01 X141.9898 Y-32.6419
G01 X141.9985 Y-32.5540
G01 X141.9990 Y-32.5442
G01 X141.9990 Y-32.4558
G01 X141.9985 Y-32.4460
G01 X141.9898 Y-32.3581
G01 X141.9884 Y-32.3484
G01 X141.9712 Y-32.2618
G01 X141.9688 Y-32.2523
G01 X141.9431 Y-32.1678
G01 X141.9398 Y-32.1585
G01 X141.9060 Y-32.0769
G01 X141.9018 Y-32.0680
G01 X141.8602 Y-31.9901
G01 X141.8551 Y-31.9817
G01 X141.8061 Y-31.9083
G01 X141.8002 Y-31.9004
G01 X141.7442 Y-31.8321
G01 X141.7376 Y-31.8249
G01 X141.6751 Y-31.7624
G01 X141.6679 Y-31.7558
G01 X141.5996 Y-31.6998
G01 X141.5917 Y-31.6939
G01 X141.5183 Y-31.6449
G01 X141.5099 Y-31.6398
G01 X141.4320 Y-31.5982
G01 X141.4231 Y-31.5940
G01 X141.3415 Y-31.5602
G01 X141.3322 Y-31.5569
G01 X141.2477 Y-31.5312
G01 X141.2382 Y-31.5288
G01 X141.1516 Y-31.5116
G01 X141.1419 Y-31.5102
G01 X141.0540 Y-31.5015
G01 X141.0000 Y-31.5000
G01 X22.0000 Y-31.5000
G01 X21.9460 Y-31.5015
G01 X21.8581 Y-31.5102
G01 X21.8484 Y-31.5116
G01 X21.7618 Y-31.5288
G01 X21.7523 Y-31.5312
G01 X21.6678 Y-31.5569
G01 X21.6585 Y-31.5602
G01 X21.5769 Y-31.5940
G01 X21.5680 Y-31.5982
G01 X21.4901 Y-31.6398
G01 X21.4817 Y-31.6449
G01 X21.4083 Y-31.6939
G01 X21.4004 Y-31.6998
G01 X21.3321 Y-31.7558
G01 X21.3249 Y-31.7624
G01 X21.2624 Y-31.8249
G01 X21.2558 Y-31.8321
G01 X21.1998 Y-31.9004
G01 X21.1939 Y-31.9083
G01 X21.1449 Y-31.9817
G01 X21.1398 Y-31.9901
G01 X21.0982 Y-32.0680
G01 X21.0940 Y-32.0769
G01 X21.0602 Y-32.1585
G01 X21.0569 Y-32.1678
G01 X21.0312 Y-32.2523
G01 X21.0288 Y-32.2618
G01 X21.0116 Y-32.3484
G01 X21.0102 Y-32.3581
G01 X21.0015 Y-32.4460
G01 X21.0010 Y-32.4558
G01 X21.0010 Y-32.5442
G01 X21.0015 Y-32.5540
G01 X21.0102 Y-32.6419
G01 X21.0116 Y-32.6516
G01 X21.0249 Y-32.7182
G00 X21.0249 Y-32.7182
G01 F60.00
G01 Z-2.4000
G01 F60.00
G01 X20.9960 Y-77.4700
G01 X20.9960 Y-96.1390
G01 X20.9974 Y-96.1905
G01 X21.0061 Y-96.2784
G01 X21.0071 Y-96.2857
G01 X21.0250 Y-96.3747
G01 X21.0250 Y-112.0493
G01 X21.0116 Y-112.1164
G01 X21.0102 Y-112.1261
G01 X21.0015 Y-112.2140
G01 X21.0010 Y-112.2238
G01 X21.0010 Y-112.3122
G01 X21.0015 Y-112.3220
G01 X21.0102 Y-112.4099
G01 X21.0116 Y-112.4196
G01 X21.0288 Y-112.5062
G01 X21.0312 Y-112.5157
G01 X21.0569 Y-112.6002
G01 X21.0602 Y-112.6095
G01 X21.0940 Y-112.6911
G01 X21.0982 Y-112.7000
G01 X21.1398 Y-112.7779
G01 X21.1449 Y-112.7863
G01 X21.1939 Y-112.8597
G01 X21.1998 Y-112.8676
G01 X21.2558 Y-112.9359
G01 X21.2624 Y-112.9431
G01 X21.3249 Y-113.0056
G01 X21.3321 Y-113.0122
G01 X21.4004 Y-113.0682
G01 X21.4083 Y-113.0741
G01 X21.4817 Y-113.1231
G01 X21.4901 Y-113.1282
G01 X21.5680 Y-113.1698
G01 X21.5769 Y-113.1740
G01 X21.6585 Y-113.2078
G01 X21.6678 Y-113.2111
G01 X21.7523 Y-113.2368
G01 X21.7618 Y-113.2392
G01 X21.8484 Y-113.2564
G01 X21.8581 Y-113.2578
G01 X21.9460 Y-113.2665
G01 X22.0000 Y-113.2680
G01 X141.0000 Y-113.2680
G01 X141.0540 Y-113.2665
G01 X141.1419 Y-113.2578
G01 X141.1516 Y-113.2564
G01 X141.2382 Y-113.2392
G01 X141.2477 Y-113.2368
G01 X141.3322 Y-113.2111
G01 X141.3415 Y-113.2078
G01 X141.4231 Y-113.1740
G01 X141.4320 Y-113.1698
G01 X141.5099 Y-113.1282
G01 X141.5183 Y-113.1231
G01 X141.5917 Y-113.0741
G01 X141.5996 Y-113.0682
G01 X141.6679 Y-113.0122
G01 X141.6751 Y-113.0056
G01 X141.7376 Y-112.9431
G01 X141.7442 Y-112.9359
G01 X141.8002 Y-112.8676
G01 X141.8061 Y-112.8597
G01 X141.8551 Y-112.7863
G01 X141.8602 Y-112.7779
G01 X141.9018 Y-112.7000
G01 X141.9060 Y-112.6911
G01 X141.9398 Y-112.6095
G01 X141.9431 Y-112.6002
G01 X141.9688 Y-112.5157
G01 X141.9712 Y-112.5062
G01 X141.9884 Y-112.4196
G01 X141.9898 Y-112.4099
G01 X141.9985 Y-112.3220
G01 X141.9990 Y-112.3122
G01 X141.9990 Y-112.2238
G01 X141.9985 Y-112.2140
G01 X141.9898 Y-112.1261
G01 X141.9884 Y-112.1164
G01 X141.9750 Y-112.0493
G01 X141.9773 Y-32.7071
G01 X141.9884 Y-32.6516
G01 X141.9898 Y-32.6419
G01 X141.9985 Y-32.5540
G01 X141.9990 Y-32.5442
G01 X141.9990 Y-32.4558
G01 X141.9985 Y-32.4460
G01 X141.9898 Y-32.3581
G01 X141.9884 Y-32.3484
G01 X141.9712 Y-32.2618
G01 X141.9688 Y-32.2523
G01 X141.9431 Y-32.1678
G01 X141.9398 Y-32.1585
G01 X141.9060 Y-32.0769
G01 X141.9018 Y-32.0680
G01 X141.8602 Y-31.9901
G01 X141.8551 Y-31.9817
G01 X141.8061 Y-31.9083
G01 X141.8002 Y-31.9004
G01 X141.7442 Y-31.8321
G01 X141.7376 Y-31.8249
G01 X141.6751 Y-31.7624
G01 X141.6679 Y-31.7558
G01 X141.5996 Y-31.6998
G01 X141.5917 Y-31.6939
G01 X141.5183 Y-31.6449
G01 X141.5099 Y-31.6398
G01 X141.4320 Y-31.5982
G01 X141.4231 Y-31.5940
G01 X141.3415 Y-31.5602
G01 X141.3322 Y-31.5569
G01 X141.2477 Y-31.5312
G01 X141.2382 Y-31.5288
G01 X141.1516 Y-31.5116
G01 X141.1419 Y-31.5102
G01 X141.0540 Y-31.5015
G01 X141.0000 Y-31.5000
G01 X22.0000 Y-31.5000
G01 X21.9460 Y-31.5015
G01 X21.8581 Y-31.5102
G01 X21.8484 Y-31.5116
G01 X21.7618 Y-31.5288
G01 X21.7523 Y-31.5312
G01 X21.6678 Y-31.5569
G01 X21.6585 Y-31.5602
G01 X21.5769 Y-31.5940
G01 X21.5680 Y-31.5982
G01 X21.4901 Y-31.6398
G01 X21.4817 Y-31.6449
G01 X21.4083 Y-31.6939
G01 X21.4004 Y-31.6998
G01 X21.3321 Y-31.7558
G01 X21.3249 Y-31.7624
G01 X21.2624 Y-31.8249
G01 X21.2558 Y-31.8321
G01 X21.1998 Y-31.9004
G01 X21.1939 Y-31.9083
G01 X21.1449 Y-31.9817
G01 X21.1398 Y-31.9901
G01 X21.0982 Y-32.0680
G01 X21.0940 Y-32.0769
G01 X21.0602 Y-32.1585
G01 X21.0569 Y-32.1678
G01 X21.0312 Y-32.2523
G01 X21.0288 Y-32.2618
G01 X21.0116 Y-32.3484
G01 X21.0102 Y-32.3581
G01 X21.0015 Y-32.4460
G01 X21.0010 Y-32.4558
G01 X21.0010 Y-32.5442
G01 X21.0015 Y-32.5540
G01 X21.0102 Y-32.6419
G01 X21.0116 Y-32.6516
G01 X21.0249 Y-32.7182
G00 X21.0249 Y-32.7182
G01 F60.00
G01 Z-3.2000
G01 F60.00
G01 X20.9960 Y-77.4700
G01 X20.9960 Y-96.1390
G01 X20.9974 Y-96.1905
G01 X21.0061 Y-96.2784
G01 X21.0071 Y-96.2857
G01 X21.0250 Y-96.3747
G01 X21.0250 Y-112.0493
G01 X21.0116 Y-112.1164
G01 X21.0102 Y-112.1261
G01 X21.0015 Y-112.2140
G01 X21.0010 Y-112.2238
G01 X21.0010 Y-112.3122
G01 X21.0015 Y-112.3220
G01 X21.0102 Y-112.4099
G01 X21.0116 Y-112.4196
G01 X21.0288 Y-112.5062
G01 X21.0312 Y-112.5157
G01 X21.0569 Y-112.6002
G01 X21.0602 Y-112.6095
G01 X21.0940 Y-112.6911
G01 X21.0982 Y-112.7000
G01 X21.1398 Y-112.7779
G01 X21.1449 Y-112.7863
G01 X21.1939 Y-112.8597
G01 X21.1998 Y-112.8676
G01 X21.2558 Y-112.9359
G01 X21.2624 Y-112.9431
G01 X21.3249 Y-113.0056
G01 X21.3321 Y-113.0122
G01 X21.4004 Y-113.0682
G01 X21.4083 Y-113.0741
G01 X21.4817 Y-113.1231
G01 X21.4901 Y-113.1282
G01 X21.5680 Y-113.1698
G01 X21.5769 Y-113.1740
G01 X21.6585 Y-113.2078
G01 X21.6678 Y-113.2111
G01 X21.7523 Y-113.2368
G01 X21.7618 Y-113.2392
G01 X21.8484 Y-113.2564
G01 X21.8581 Y-113.2578
G01 X21.9460 Y-113.2665
G01 X22.0000 Y-113.2680
G01 X141.0000 Y-113.2680
G01 X141.0540 Y-113.2665
G01 X141.1419 Y-113.2578
G01 X141.1516 Y-113.2564
G01 X141.2382 Y-113.2392
G01 X141.2477 Y-113.2368
G01 X141.3322 Y-113.2111
G01 X141.3415 Y-113.2078
G01 X141.4231 Y-113.1740
G01 X141.4320 Y-113.1698
G01 X141.5099 Y-113.1282
G01 X141.5183 Y-113.1231
G01 X141.5917 Y-113.0741
G01 X141.5996 Y-113.0682
G01 X141.6679 Y-113.0122
G01 X141.6751 Y-113.0056
G01 X141.7376 Y-112.9431
G01 X141.7442 Y-112.9359
G01 X141.8002 Y-112.8676
G01 X141.8061 Y-112.8597
G01 X141.8551 Y-112.7863
G01 X141.8602 Y-112.7779
G01 X141.9018 Y-112.7000
G01 X141.9060 Y-112.6911
G01 X141.9398 Y-112.6095
G01 X141.9431 Y-112.6002
G01 X141.9688 Y-112.5157
G01 X141.9712 Y-112.5062
G01 X141.9884 Y-112.4196
G01 X141.9898 Y-112.4099
G01 X141.9985 Y-112.3220
G01 X141.9990 Y-112.3122
G01 X141.9990 Y-112.2238
G01 X141.9985 Y-112.2140
G01 X141.9898 Y-112.1261
G01 X141.9884 Y-112.1164
G01 X141.9750 Y-112.0493
G01 X141.9773 Y-32.7071
G01 X141.9884 Y-32.6516
G01 X141.9898 Y-32.6419
G01 X141.9985 Y-32.5540
G01 X141.9990 Y-32.5442
G01 X141.9990 Y-32.4558
G01 X141.9985 Y-32.4460
G01 X141.9898 Y-32.3581
G01 X141.9884 Y-32.3484
G01 X141.9712 Y-32.2618
G01 X141.9688 Y-32.2523
G01 X141.9431 Y-32.1678
G01 X141.9398 Y-32.1585
G01 X141.9060 Y-32.0769
G01 X141.9018 Y-32.0680
G01 X141.8602 Y-31.9901
G01 X141.8551 Y-31.9817
G01 X141.8061 Y-31.9083
G01 X141.8002 Y-31.9004
G01 X141.7442 Y-31.8321
G01 X141.7376 Y-31.8249
G01 X141.6751 Y-31.7624
G01 X141.6679 Y-31.7558
G01 X141.5996 Y-31.6998
G01 X141.5917 Y-31.6939
G01 X141.5183 Y-31.6449
G01 X141.5099 Y-31.6398
G01 X141.4320 Y-31.5982
G01 X141.4231 Y-31.5940
G01 X141.3415 Y-31.5602
G01 X141.3322 Y-31.5569
G01 X141.2477 Y-31.5312
G01 X141.2382 Y-31.5288
G01 X141.1516 Y-31.5116
G01 X141.1419 Y-31.5102
G01 X141.0540 Y-31.5015
G01 X141.0000 Y-31.5000
G01 X22.0000 Y-31.5000
G01 X21.9460 Y-31.5015
G01 X21.8581 Y-31.5102
G01 X21.8484 Y-31.5116
G01 X21.7618 Y-31.5288
G01 X21.7523 Y-31.5312
G01 X21.6678 Y-31.5569
G01 X21.6585 Y-31.5602
G01 X21.5769 Y-31.5940
G01 X21.5680 Y-31.5982
G01 X21.4901 Y-31.6398
G01 X21.4817 Y-31.6449
G01 X21.4083 Y-31.6939
G01 X21.4004 Y-31.6998
G01 X21.3321 Y-31.7558
G01 X21.3249 Y-31.7624
G01 X21.2624 Y-31.8249
G01 X21.2558 Y-31.8321
G01 X21.1998 Y-31.9004
G01 X21.1939 Y-31.9083
G01 X21.1449 Y-31.9817
G01 X21.1398 Y-31.9901
G01 X21.0982 Y-32.0680
G01 X21.0940 Y-32.0769
G01 X21.0602 Y-32.1585
G01 X21.0569 Y-32.1678
G01 X21.0312 Y-32.2523
G01 X21.0288 Y-32.2618
G01 X21.0116 Y-32.3484
G01 X21.0102 Y-32.3581
G01 X21.0015 Y-32.4460
G01 X21.0010 Y-32.4558
G01 X21.0010 Y-32.5442
G01 X21.0015 Y-32.5540
G01 X21.0102 Y-32.6419
G01 X21.0116 Y-32.6516
G01 X21.0249 Y-32.7182
G00 X21.0249 Y-32.7182
G01 F60.00
G01 Z-4.0000
G01 F60.00
G01 X20.9960 Y-77.4700
G01 X20.9960 Y-96.1390
G01 X20.9974 Y-96.1905
G01 X21.0061 Y-96.2784
G01 X21.0071 Y-96.2857
G01 X21.0250 Y-96.3747
G01 X21.0250 Y-112.0493
G01 X21.0116 Y-112.1164
G01 X21.0102 Y-112.1261
G01 X21.0015 Y-112.2140
G01 X21.0010 Y-112.2238
G01 X21.0010 Y-112.3122
G01 X21.0015 Y-112.3220
G01 X21.0102 Y-112.4099
G01 X21.0116 Y-112.4196
G01 X21.0288 Y-112.5062
G01 X21.0312 Y-112.5157
G01 X21.0569 Y-112.6002
G01 X21.0602 Y-112.6095
G01 X21.0940 Y-112.6911
G01 X21.0982 Y-112.7000
G01 X21.1398 Y-112.7779
G01 X21.1449 Y-112.7863
G01 X21.1939 Y-112.8597
G01 X21.1998 Y-112.8676
G01 X21.2558 Y-112.9359
G01 X21.2624 Y-112.9431
G01 X21.3249 Y-113.0056
G01 X21.3321 Y-113.0122
G01 X21.4004 Y-113.0682
G01 X21.4083 Y-113.0741
G01 X21.4817 Y-113.1231
G01 X21.4901 Y-113.1282
G01 X21.5680 Y-113.1698
G01 X21.5769 Y-113.1740
G01 X21.6585 Y-113.2078
G01 X21.6678 Y-113.2111
G01 X21.7523 Y-113.2368
G01 X21.7618 Y-113.2392
G01 X21.8484 Y-113.2564
G01 X21.8581 Y-113.2578
G01 X21.9460 Y-113.2665
G01 X22.0000 Y-113.2680
G01 X141.0000 Y-113.2680
G01 X141.0540 Y-113.2665
G01 X141.1419 Y-113.2578
G01 X141.1516 Y-113.2564
G01 X141.2382 Y-113.2392
G01 X141.2477 Y-113.2368
G01 X141.3322 Y-113.2111
G01 X141.3415 Y-113.2078
G01 X141.4231 Y-113.1740
G01 X141.4320 Y-113.1698
G01 X141.5099 Y-113.1282
G01 X141.5183 Y-113.1231
G01 X141.5917 Y-113.0741
G01 X141.5996 Y-113.0682
G01 X141.6679 Y-113.0122
G01 X141.6751 Y-113.0056
G01 X141.7376 Y-112.9431
G01 X141.7442 Y-112.9359
G01 X141.8002 Y-112.8676
G01 X141.8061 Y-112.8597
G01 X141.8551 Y-112.7863
G01 X141.8602 Y-112.7779
G01 X141.9018 Y-112.7000
G01 X141.9060 Y-112.6911
G01 X141.9398 Y-112.6095
G01 X141.9431 Y-112.6002
G01 X141.9688 Y-112.5157
G01 X141.9712 Y-112.5062
G01 X141.9884 Y-112.4196
G01 X141.9898 Y-112.4099
G01 X141.9985 Y-112.3220
G01 X141.9990 Y-112.3122
G01 X141.9990 Y-112.2238
G01 X141.9985 Y-112.2140
G01 X141.9898 Y-112.1261
G01 X141.9884 Y-112.1164
G01 X141.9750 Y-112.0493
G01 X141.9773 Y-32.7071
G01 X141.9884 Y-32.6516
G01 X141.9898 Y-32.6419
G01 X141.9985 Y-32.5540
G01 X141.9990 Y-32.5442
G01 X141.9990 Y-32.4558
G01 X141.9985 Y-32.4460
G01 X141.9898 Y-32.3581
G01 X141.9884 Y-32.3484
G01 X141.9712 Y-32.2618
G01 X141.9688 Y-32.2523
G01 X141.9431 Y-32.1678
G01 X141.9398 Y-32.1585
G01 X141.9060 Y-32.0769
G01 X141.9018 Y-32.0680
G01 X141.8602 Y-31.9901
G01 X141.8551 Y-31.9817
G01 X141.8061 Y-31.9083
G01 X141.8002 Y-31.9004
G01 X141.7442 Y-31.8321
G01 X141.7376 Y-31.8249
G01 X141.6751 Y-31.7624
G01 X141.6679 Y-31.7558
G01 X141.5996 Y-31.6998
G01 X141.5917 Y-31.6939
G01 X141.5183 Y-31.6449
G01 X141.5099 Y-31.6398
G01 X141.4320 Y-31.5982
G01 X141.4231 Y-31.5940
G01 X141.3415 Y-31.5602
G01 X141.3322 Y-31.5569
G01 X141.2477 Y-31.5312
G01 X141.2382 Y-31.5288
G01 X141.1516 Y-31.5116
G01 X141.1419 Y-31.5102
G01 X141.0540 Y-31.5015
G01 X141.0000 Y-31.5000
G01 X22.0000 Y-31.5000
G01 X21.9460 Y-31.5015
G01 X21.8581 Y-31.5102
G01 X21.8484 Y-31.5116
G01 X21.7618 Y-31.5288
G01 X21.7523 Y-31.5312
G01 X21.6678 Y-31.5569
G01 X21.6585 Y-31.5602
G01 X21.5769 Y-31.5940
G01 X21.5680 Y-31.5982
G01 X21.4901 Y-31.6398
G01 X21.4817 Y-31.6449
G01 X21.4083 Y-31.6939
G01 X21.4004 Y-31.6998
G01 X21.3321 Y-31.7558
G01 X21.3249 Y-31.7624
G01 X21.2624 Y-31.8249
G01 X21.2558 Y-31.8321
G01 X21.1998 Y-31.9004
G01 X21.1939 Y-31.9083
G01 X21.1449 Y-31.9817
G01 X21.1398 Y-31.9901
G01 X21.0982 Y-32.0680
G01 X21.0940 Y-32.0769
G01 X21.0602 Y-32.1585
G01 X21.0569 Y-32.1678
G01 X21.0312 Y-32.2523
G01 X21.0288 Y-32.2618
G01 X21.0116 Y-32.3484
G01 X21.0102 Y-32.3581
G01 X21.0015 Y-32.4460
G01 X21.0010 Y-32.4558
G01 X21.0010 Y-32.5442
G01 X21.0015 Y-32.5540
G01 X21.0102 Y-32.6419
G01 X21.0116 Y-32.6516
G01 X21.0249 Y-32.7182
G00 X21.0249 Y-32.7182
G01 F60.00
G01 Z-4.8000
G01 F60.00
G01 X20.9960 Y-77.4700
G01 X20.9960 Y-96.1390
G01 X20.9974 Y-96.1905
G01 X21.0061 Y-96.2784
G01 X21.0071 Y-96.2857
G01 X21.0250 Y-96.3747
G01 X21.0250 Y-112.0493
G01 X21.0116 Y-112.1164
G01 X21.0102 Y-112.1261
G01 X21.0015 Y-112.2140
G01 X21.0010 Y-112.2238
G01 X21.0010 Y-112.3122
G01 X21.0015 Y-112.3220
G01 X21.0102 Y-112.4099
G01 X21.0116 Y-112.4196
G01 X21.0288 Y-112.5062
G01 X21.0312 Y-112.5157
G01 X21.0569 Y-112.6002
G01 X21.0602 Y-112.6095
G01 X21.0940 Y-112.6911
G01 X21.0982 Y-112.7000
G01 X21.1398 Y-112.7779
G01 X21.1449 Y-112.7863
G01 X21.1939 Y-112.8597
G01 X21.1998 Y-112.8676
G01 X21.2558 Y-112.9359
G01 X21.2624 Y-112.9431
G01 X21.3249 Y-113.0056
G01 X21.3321 Y-113.0122
G01 X21.4004 Y-113.0682
G01 X21.4083 Y-113.0741
G01 X21.4817 Y-113.1231
G01 X21.4901 Y-113.1282
G01 X21.5680 Y-113.1698
G01 X21.5769 Y-113.1740
G01 X21.6585 Y-113.2078
G01 X21.6678 Y-113.2111
G01 X21.7523 Y-113.2368
G01 X21.7618 Y-113.2392
G01 X21.8484 Y-113.2564
G01 X21.8581 Y-113.2578
G01 X21.9460 Y-113.2665
G01 X22.0000 Y-113.2680
G01 X141.0000 Y-113.2680
G01 X141.0540 Y-113.2665
G01 X141.1419 Y-113.2578
G01 X141.1516 Y-113.2564
G01 X141.2382 Y-113.2392
G01 X141.2477 Y-113.2368
G01 X141.3322 Y-113.2111
G01 X141.3415 Y-113.2078
G01 X141.4231 Y-113.1740
G01 X141.4320 Y-113.1698
G01 X141.5099 Y-113.1282
G01 X141.5183 Y-113.1231
G01 X141.5917 Y-113.0741
G01 X141.5996 Y-113.0682
G01 X141.6679 Y-113.0122
G01 X141.6751 Y-113.0056
G01 X141.7376 Y-112.9431
G01 X141.7442 Y-112.9359
G01 X141.8002 Y-112.8676
G01 X141.8061 Y-112.8597
G01 X141.8551 Y-112.7863
G01 X141.8602 Y-112.7779
G01 X141.9018 Y-112.7000
G01 X141.9060 Y-112.6911
G01 X141.9398 Y-112.6095
G01 X141.9431 Y-112.6002
G01 X141.9688 Y-112.5157
G01 X141.9712 Y-112.5062
G01 X141.9884 Y-112.4196
G01 X141.9898 Y-112.4099
G01 X141.9985 Y-112.3220
G01 X141.9990 Y-112.3122
G01 X141.9990 Y-112.2238
G01 X141.9985 Y-112.2140
G01 X141.9898 Y-112.1261
G01 X141.9884 Y-112.1164
G01 X141.9750 Y-112.0493
G01 X141.9773 Y-32.7071
G01 X141.9884 Y-32.6516
G01 X141.9898 Y-32.6419
G01 X141.9985 Y-32.5540
G01 X141.9990 Y-32.5442
G01 X141.9990 Y-32.4558
G01 X141.9985 Y-32.4460
G01 X141.9898 Y-32.3581
G01 X141.9884 Y-32.3484
G01 X141.9712 Y-32.2618
G01 X141.9688 Y-32.2523
G01 X141.9431 Y-32.1678
G01 X141.9398 Y-32.1585
G01 X141.9060 Y-32.0769
G01 X141.9018 Y-32.0680
G01 X141.8602 Y-31.9901
G01 X141.8551 Y-31.9817
G01 X141.8061 Y-31.9083
G01 X141.8002 Y-31.9004
G01 X141.7442 Y-31.8321
G01 X141.7376 Y-31.8249
G01 X141.6751 Y-31.7624
G01 X141.6679 Y-31.7558
G01 X141.5996 Y-31.6998
G01 X141.5917 Y-31.6939
G01 X141.5183 Y-31.6449
G01 X141.5099 Y-31.6398
G01 X141.4320 Y-31.5982
G01 X141.4231 Y-31.5940
G01 X141.3415 Y-31.5602
G01 X141.3322 Y-31.5569
G01 X141.2477 Y-31.5312
G01 X141.2382 Y-31.5288
G01 X141.1516 Y-31.5116
G01 X141.1419 Y-31.5102
G01 X141.0540 Y-31.5015
G01 X141.0000 Y-31.5000
G01 X22.0000 Y-31.5000
G01 X21.9460 Y-31.5015
G01 X21.8581 Y-31.5102
G01 X21.8484 Y-31.5116
G01 X21.7618 Y-31.5288
G01 X21.7523 Y-31.5312
G01 X21.6678 Y-31.5569
G01 X21.6585 Y-31.5602
G01 X21.5769 Y-31.5940
G01 X21.5680 Y-31.5982
G01 X21.4901 Y-31.6398
G01 X21.4817 Y-31.6449
G01 X21.4083 Y-31.6939
G01 X21.4004 Y-31.6998
G01 X21.3321 Y-31.7558
G01 X21.3249 Y-31.7624
G01 X21.2624 Y-31.8249
G01 X21.2558 Y-31.8321
G01 X21.1998 Y-31.9004
G01 X21.1939 Y-31.9083
G01 X21.1449 Y-31.9817
G01 X21.1398 Y-31.9901
G01 X21.0982 Y-32.0680
G01 X21.0940 Y-32.0769
G01 X21.0602 Y-32.1585
G01 X21.0569 Y-32.1678
G01 X21.0312 Y-32.2523
G01 X21.0288 Y-32.2618
G01 X21.0116 Y-32.3484
G01 X21.0102 Y-32.3581
G01 X21.0015 Y-32.4460
G01 X21.0010 Y-32.4558
G01 X21.0010 Y-32.5442
G01 X21.0015 Y-32.5540
G01 X21.0102 Y-32.6419
G01 X21.0116 Y-32.6516
G01 X21.0249 Y-32.7182
G00 X21.0249 Y-32.7182
G01 F60.00
G01 Z-5.6000
G01 F60.00
G01 X20.9960 Y-77.4700
G01 X20.9960 Y-96.1390
G01 X20.9974 Y-96.1905
G01 X21.0061 Y-96.2784
G01 X21.0071 Y-96.2857
G01 X21.0250 Y-96.3747
G01 X21.0250 Y-112.0493
G01 X21.0116 Y-112.1164
G01 X21.0102 Y-112.1261
G01 X21.0015 Y-112.2140
G01 X21.0010 Y-112.2238
G01 X21.0010 Y-112.3122
G01 X21.0015 Y-112.3220
G01 X21.0102 Y-112.4099
G01 X21.0116 Y-112.4196
G01 X21.0288 Y-112.5062
G01 X21.0312 Y-112.5157
G01 X21.0569 Y-112.6002
G01 X21.0602 Y-112.6095
G01 X21.0940 Y-112.6911
G01 X21.0982 Y-112.7000
G01 X21.1398 Y-112.7779
G01 X21.1449 Y-112.7863
G01 X21.1939 Y-112.8597
G01 X21.1998 Y-112.8676
G01 X21.2558 Y-112.9359
G01 X21.2624 Y-112.9431
G01 X21.3249 Y-113.0056
G01 X21.3321 Y-113.0122
G01 X21.4004 Y-113.0682
G01 X21.4083 Y-113.0741
G01 X21.4817 Y-113.1231
G01 X21.4901 Y-113.1282
G01 X21.5680 Y-113.1698
G01 X21.5769 Y-113.1740
G01 X21.6585 Y-113.2078
G01 X21.6678 Y-113.2111
G01 X21.7523 Y-113.2368
G01 X21.7618 Y-113.2392
G01 X21.8484 Y-113.2564
G01 X21.8581 Y-113.2578
G01 X21.9460 Y-113.2665
G01 X22.0000 Y-113.2680
G01 X141.0000 Y-113.2680
G01 X141.0540 Y-113.2665
G01 X141.1419 Y-113.2578
G01 X141.1516 Y-113.2564
G01 X141.2382 Y-113.2392
G01 X141.2477 Y-113.2368
G01 X141.3322 Y-113.2111
G01 X141.3415 Y-113.2078
G01 X141.4231 Y-113.1740
G01 X141.4320 Y-113.1698
G01 X141.5099 Y-113.1282
G01 X141.5183 Y-113.1231
G01 X141.5917 Y-113.0741
G01 X141.5996 Y-113.0682
G01 X141.6679 Y-113.0122
G01 X141.6751 Y-113.0056
G01 X141.7376 Y-112.9431
G01 X141.7442 Y-112.9359
G01 X141.8002 Y-112.8676
G01 X141.8061 Y-112.8597
G01 X141.8551 Y-112.7863
G01 X141.8602 Y-112.7779
G01 X141.9018 Y-112.7000
G01 X141.9060 Y-112.6911
G01 X141.9398 Y-112.6095
G01 X141.9431 Y-112.6002
G01 X141.9688 Y-112.5157
G01 X141.9712 Y-112.5062
G01 X141.9884 Y-112.4196
G01 X141.9898 Y-112.4099
G01 X141.9985 Y-112.3220
G01 X141.9990 Y-112.3122
G01 X141.9990 Y-112.2238
G01 X141.9985 Y-112.2140
G01 X141.9898 Y-112.1261
G01 X141.9884 Y-112.1164
G01 X141.9750 Y-112.0493
G01 X141.9773 Y-32.7071
G01 X141.9884 Y-32.6516
G01 X141.9898 Y-32.6419
G01 X141.9985 Y-32.5540
G01 X141.9990 Y-32.5442
G01 X141.9990 Y-32.4558
G01 X141.9985 Y-32.4460
G01 X141.9898 Y-32.3581
G01 X141.9884 Y-32.3484
G01 X141.9712 Y-32.2618
G01 X141.9688 Y-32.2523
G01 X141.9431 Y-32.1678
G01 X141.9398 Y-32.1585
G01 X141.9060 Y-32.0769
G01 X141.9018 Y-32.0680
G01 X141.8602 Y-31.9901
G01 X141.8551 Y-31.9817
G01 X141.8061 Y-31.9083
G01 X141.8002 Y-31.9004
G01 X141.7442 Y-31.8321
G01 X141.7376 Y-31.8249
G01 X141.6751 Y-31.7624
G01 X141.6679 Y-31.7558
G01 X141.5996 Y-31.6998
G01 X141.5917 Y-31.6939
G01 X141.5183 Y-31.6449
G01 X141.5099 Y-31.6398
G01 X141.4320 Y-31.5982
G01 X141.4231 Y-31.5940
G01 X141.3415 Y-31.5602
G01 X141.3322 Y-31.5569
G01 X141.2477 Y-31.5312
G01 X141.2382 Y-31.5288
G01 X141.1516 Y-31.5116
G01 X141.1419 Y-31.5102
G01 X141.0540 Y-31.5015
G01 X141.0000 Y-31.5000
G01 X22.0000 Y-31.5000
G01 X21.9460 Y-31.5015
G01 X21.8581 Y-31.5102
G01 X21.8484 Y-31.5116
G01 X21.7618 Y-31.5288
G01 X21.7523 Y-31.5312
G01 X21.6678 Y-31.5569
G01 X21.6585 Y-31.5602
G01 X21.5769 Y-31.5940
G01 X21.5680 Y-31.5982
G01 X21.4901 Y-31.6398
G01 X21.4817 Y-31.6449
G01 X21.4083 Y-31.6939
G01 X21.4004 Y-31.6998
G01 X21.3321 Y-31.7558
G01 X21.3249 Y-31.7624
G01 X21.2624 Y-31.8249
G01 X21.2558 Y-31.8321
G01 X21.1998 Y-31.9004
G01 X21.1939 Y-31.9083
G01 X21.1449 Y-31.9817
G01 X21.1398 Y-31.9901
G01 X21.0982 Y-32.0680
G01 X21.0940 Y-32.0769
G01 X21.0602 Y-32.1585
G01 X21.0569 Y-32.1678
G01 X21.0312 Y-32.2523
G01 X21.0288 Y-32.2618
G01 X21.0116 Y-32.3484
G01 X21.0102 Y-32.3581
G01 X21.0015 Y-32.4460
G01 X21.0010 Y-32.4558
G01 X21.0010 Y-32.5442
G01 X21.0015 Y-32.5540
G01 X21.0102 Y-32.6419
G01 X21.0116 Y-32.6516
G01 X21.0249 Y-32.7182
G00 X21.0249 Y-32.7182
G01 F60.00
G01 Z-6.4000
G01 F60.00
G01 X20.9960 Y-77.4700
G01 X20.9960 Y-96.1390
G01 X20.9974 Y-96.1905
G01 X21.0061 Y-96.2784
G01 X21.0071 Y-96.2857
G01 X21.0250 Y-96.3747
G01 X21.0250 Y-112.0493
G01 X21.0116 Y-112.1164
G01 X21.0102 Y-112.1261
G01 X21.0015 Y-112.2140
G01 X21.0010 Y-112.2238
G01 X21.0010 Y-112.3122
G01 X21.0015 Y-112.3220
G01 X21.0102 Y-112.4099
G01 X21.0116 Y-112.4196
G01 X21.0288 Y-112.5062
G01 X21.0312 Y-112.5157
G01 X21.0569 Y-112.6002
G01 X21.0602 Y-112.6095
G01 X21.0940 Y-112.6911
G01 X21.0982 Y-112.7000
G01 X21.1398 Y-112.7779
G01 X21.1449 Y-112.7863
G01 X21.1939 Y-112.8597
G01 X21.1998 Y-112.8676
G01 X21.2558 Y-112.9359
G01 X21.2624 Y-112.9431
G01 X21.3249 Y-113.0056
G01 X21.3321 Y-113.0122
G01 X21.4004 Y-113.0682
G01 X21.4083 Y-113.0741
G01 X21.4817 Y-113.1231
G01 X21.4901 Y-113.1282
G01 X21.5680 Y-113.1698
G01 X21.5769 Y-113.1740
G01 X21.6585 Y-113.2078
G01 X21.6678 Y-113.2111
G01 X21.7523 Y-113.2368
G01 X21.7618 Y-113.2392
G01 X21.8484 Y-113.2564
G01 X21.8581 Y-113.2578
G01 X21.9460 Y-113.2665
G01 X22.0000 Y-113.2680
G01 X141.0000 Y-113.2680
G01 X141.0540 Y-113.2665
G01 X141.1419 Y-113.2578
G01 X141.1516 Y-113.2564
G01 X141.2382 Y-113.2392
G01 X141.2477 Y-113.2368
G01 X141.3322 Y-113.2111
G01 X141.3415 Y-113.2078
G01 X141.4231 Y-113.1740
G01 X141.4320 Y-113.1698
G01 X141.5099 Y-113.1282
G01 X141.5183 Y-113.1231
G01 X141.5917 Y-113.0741
G01 X141.5996 Y-113.0682
G01 X141.6679 Y-113.0122
G01 X141.6751 Y-113.0056
G01 X141.7376 Y-112.9431
G01 X141.7442 Y-112.9359
G01 X141.8002 Y-112.8676
G01 X141.8061 Y-112.8597
G01 X141.8551 Y-112.7863
G01 X141.8602 Y-112.7779
G01 X141.9018 Y-112.7000
G01 X141.9060 Y-112.6911
G01 X141.9398 Y-112.6095
G01 X141.9431 Y-112.6002
G01 X141.9688 Y-112.5157
G01 X141.9712 Y-112.5062
G01 X141.9884 Y-112.4196
G01 X141.9898 Y-112.4099
G01 X141.9985 Y-112.3220
G01 X141.9990 Y-112.3122
G01 X141.9990 Y-112.2238
G01 X141.9985 Y-112.2140
G01 X141.9898 Y-112.1261
G01 X141.9884 Y-112.1164
G01 X141.9750 Y-112.0493
G01 X141.9773 Y-32.7071
G01 X141.9884 Y-32.6516
G01 X141.9898 Y-32.6419
G01 X141.9985 Y-32.5540
G01 X141.9990 Y-32.5442
G01 X141.9990 Y-32.4558
G01 X141.9985 Y-32.4460
G01 X141.9898 Y-32.3581
G01 X141.9884 Y-32.3484
G01 X141.9712 Y-32.2618
G01 X141.9688 Y-32.2523
G01 X141.9431 Y-32.1678
G01 X141.9398 Y-32.1585
G01 X141.9060 Y-32.0769
G01 X141.9018 Y-32.0680
G01 X141.8602 Y-31.9901
G01 X141.8551 Y-31.9817
G01 X141.8061 Y-31.9083
G01 X141.8002 Y-31.9004
G01 X141.7442 Y-31.8321
G01 X141.7376 Y-31.8249
G01 X141.6751 Y-31.7624
G01 X141.6679 Y-31.7558
G01 X141.5996 Y-31.6998
G01 X141.5917 Y-31.6939
G01 X141.5183 Y-31.6449
G01 X141.5099 Y-31.6398
G01 X141.4320 Y-31.5982
G01 X141.4231 Y-31.5940
G01 X141.3415 Y-31.5602
G01 X141.3322 Y-31.5569
G01 X141.2477 Y-31.5312
G01 X141.2382 Y-31.5288
G01 X141.1516 Y-31.5116
G01 X141.1419 Y-31.5102
G01 X141.0540 Y-31.5015
G01 X141.0000 Y-31.5000
G01 X22.0000 Y-31.5000
G01 X21.9460 Y-31.5015
G01 X21.8581 Y-31.5102
G01 X21.8484 Y-31.5116
G01 X21.7618 Y-31.5288
G01 X21.7523 Y-31.5312
G01 X21.6678 Y-31.5569
G01 X21.6585 Y-31.5602
G01 X21.5769 Y-31.5940
G01 X21.5680 Y-31.5982
G01 X21.4901 Y-31.6398
G01 X21.4817 Y-31.6449
G01 X21.4083 Y-31.6939
G01 X21.4004 Y-31.6998
G01 X21.3321 Y-31.7558
G01 X21.3249 Y-31.7624
G01 X21.2624 Y-31.8249
G01 X21.2558 Y-31.8321
G01 X21.1998 Y-31.9004
G01 X21.1939 Y-31.9083
G01 X21.1449 Y-31.9817
G01 X21.1398 Y-31.9901
G01 X21.0982 Y-32.0680
G01 X21.0940 Y-32.0769
G01 X21.0602 Y-32.1585
G01 X21.0569 Y-32.1678
G01 X21.0312 Y-32.2523
G01 X21.0288 Y-32.2618
G01 X21.0116 Y-32.3484
G01 X21.0102 Y-32.3581
G01 X21.0015 Y-32.4460
G01 X21.0010 Y-32.4558
G01 X21.0010 Y-32.5442
G01 X21.0015 Y-32.5540
G01 X21.0102 Y-32.6419
G01 X21.0116 Y-32.6516
G01 X21.0249 Y-32.7182
G00 X21.0249 Y-32.7182
G01 F60.00
G01 Z-7.2000
G01 F60.00
G01 X20.9960 Y-77.4700
G01 X20.9960 Y-96.1390
G01 X20.9974 Y-96.1905
G01 X21.0061 Y-96.2784
G01 X21.0071 Y-96.2857
G01 X21.0250 Y-96.3747
G01 X21.0250 Y-112.0493
G01 X21.0116 Y-112.1164
G01 X21.0102 Y-112.1261
G01 X21.0015 Y-112.2140
G01 X21.0010 Y-112.2238
G01 X21.0010 Y-112.3122
G01 X21.0015 Y-112.3220
G01 X21.0102 Y-112.4099
G01 X21.0116 Y-112.4196
G01 X21.0288 Y-112.5062
G01 X21.0312 Y-112.5157
G01 X21.0569 Y-112.6002
G01 X21.0602 Y-112.6095
G01 X21.0940 Y-112.6911
G01 X21.0982 Y-112.7000
G01 X21.1398 Y-112.7779
G01 X21.1449 Y-112.7863
G01 X21.1939 Y-112.8597
G01 X21.1998 Y-112.8676
G01 X21.2558 Y-112.9359
G01 X21.2624 Y-112.9431
G01 X21.3249 Y-113.0056
G01 X21.3321 Y-113.0122
G01 X21.4004 Y-113.0682
G01 X21.4083 Y-113.0741
G01 X21.4817 Y-113.1231
G01 X21.4901 Y-113.1282
G01 X21.5680 Y-113.1698
G01 X21.5769 Y-113.1740
G01 X21.6585 Y-113.2078
G01 X21.6678 Y-113.2111
G01 X21.7523 Y-113.2368
G01 X21.7618 Y-113.2392
G01 X21.8484 Y-113.2564
G01 X21.8581 Y-113.2578
G01 X21.9460 Y-113.2665
G01 X22.0000 Y-113.2680
G01 X141.0000 Y-113.2680
G01 X141.0540 Y-113.2665
G01 X141.1419 Y-113.2578
G01 X141.1516 Y-113.2564
G01 X141.2382 Y-113.2392
G01 X141.2477 Y-113.2368
G01 X141.3322 Y-113.2111
G01 X141.3415 Y-113.2078
G01 X141.4231 Y-113.1740
G01 X141.4320 Y-113.1698
G01 X141.5099 Y-113.1282
G01 X141.5183 Y-113.1231
G01 X141.5917 Y-113.0741
G01 X141.5996 Y-113.0682
G01 X141.6679 Y-113.0122
G01 X141.6751 Y-113.0056
G01 X141.7376 Y-112.9431
G01 X141.7442 Y-112.9359
G01 X141.8002 Y-112.8676
G01 X141.8061 Y-112.8597
G01 X141.8551 Y-112.7863
G01 X141.8602 Y-112.7779
G01 X141.9018 Y-112.7000
G01 X141.9060 Y-112.6911
G01 X141.9398 Y-112.6095
G01 X141.9431 Y-112.6002
G01 X141.9688 Y-112.5157
G01 X141.9712 Y-112.5062
G01 X141.9884 Y-112.4196
G01 X141.9898 Y-112.4099
G01 X141.9985 Y-112.3220
G01 X141.9990 Y-112.3122
G01 X141.9990 Y-112.2238
G01 X141.9985 Y-112.2140
G01 X141.9898 Y-112.1261
G01 X141.9884 Y-112.1164
G01 X141.9750 Y-112.0493
G01 X141.9773 Y-32.7071
G01 X141.9884 Y-32.6516
G01 X141.9898 Y-32.6419
G01 X141.9985 Y-32.5540
G01 X141.9990 Y-32.5442
G01 X141.9990 Y-32.4558
G01 X141.9985 Y-32.4460
G01 X141.9898 Y-32.3581
G01 X141.9884 Y-32.3484
G01 X141.9712 Y-32.2618
G01 X141.9688 Y-32.2523
G01 X141.9431 Y-32.1678
G01 X141.9398 Y-32.1585
G01 X141.9060 Y-32.0769
G01 X141.9018 Y-32.0680
G01 X141.8602 Y-31.9901
G01 X141.8551 Y-31.9817
G01 X141.8061 Y-31.9083
G01 X141.8002 Y-31.9004
G01 X141.7442 Y-31.8321
G01 X141.7376 Y-31.8249
G01 X141.6751 Y-31.7624
G01 X141.6679 Y-31.7558
G01 X141.5996 Y-31.6998
G01 X141.5917 Y-31.6939
G01 X141.5183 Y-31.6449
G01 X141.5099 Y-31.6398
G01 X141.4320 Y-31.5982
G01 X141.4231 Y-31.5940
G01 X141.3415 Y-31.5602
G01 X141.3322 Y-31.5569
G01 X141.2477 Y-31.5312
G01 X141.2382 Y-31.5288
G01 X141.1516 Y-31.5116
G01 X141.1419 Y-31.5102
G01 X141.0540 Y-31.5015
G01 X141.0000 Y-31.5000
G01 X22.0000 Y-31.5000
G01 X21.9460 Y-31.5015
G01 X21.8581 Y-31.5102
G01 X21.8484 Y-31.5116
G01 X21.7618 Y-31.5288
G01 X21.7523 Y-31.5312
G01 X21.6678 Y-31.5569
G01 X21.6585 Y-31.5602
G01 X21.5769 Y-31.5940
G01 X21.5680 Y-31.5982
G01 X21.4901 Y-31.6398
G01 X21.4817 Y-31.6449
G01 X21.4083 Y-31.6939
G01 X21.4004 Y-31.6998
G01 X21.3321 Y-31.7558
G01 X21.3249 Y-31.7624
G01 X21.2624 Y-31.8249
G01 X21.2558 Y-31.8321
G01 X21.1998 Y-31.9004
G01 X21.1939 Y-31.9083
G01 X21.1449 Y-31.9817
G01 X21.1398 Y-31.9901
G01 X21.0982 Y-32.0680
G01 X21.0940 Y-32.0769
G01 X21.0602 Y-32.1585
G01 X21.0569 Y-32.1678
G01 X21.0312 Y-32.2523
G01 X21.0288 Y-32.2618
G01 X21.0116 Y-32.3484
G01 X21.0102 Y-32.3581
G01 X21.0015 Y-32.4460
G01 X21.0010 Y-32.4558
G01 X21.0010 Y-32.5442
G01 X21.0015 Y-32.5540
G01 X21.0102 Y-32.6419
G01 X21.0116 Y-32.6516
G01 X21.0249 Y-32.7182
G00 X21.0249 Y-32.7182
G01 F60.00
G01 Z-8.0000
G01 F60.00
G01 X20.9960 Y-77.4700
G01 X20.9960 Y-96.1390
G01 X20.9974 Y-96.1905
G01 X21.0061 Y-96.2784
G01 X21.0071 Y-96.2857
G01 X21.0250 Y-96.3747
G01 X21.0250 Y-112.0493
G01 X21.0116 Y-112.1164
G01 X21.0102 Y-112.1261
G01 X21.0015 Y-112.2140
G01 X21.0010 Y-112.2238
G01 X21.0010 Y-112.3122
G01 X21.0015 Y-112.3220
G01 X21.0102 Y-112.4099
G01 X21.0116 Y-112.4196
G01 X21.0288 Y-112.5062
G01 X21.0312 Y-112.5157
G01 X21.0569 Y-112.6002
G01 X21.0602 Y-112.6095
G01 X21.0940 Y-112.6911
G01 X21.0982 Y-112.7000
G01 X21.1398 Y-112.7779
G01 X21.1449 Y-112.7863
G01 X21.1939 Y-112.8597
G01 X21.1998 Y-112.8676
G01 X21.2558 Y-112.9359
G01 X21.2624 Y-112.9431
G01 X21.3249 Y-113.0056
G01 X21.3321 Y-113.0122
G01 X21.4004 Y-113.0682
G01 X21.4083 Y-113.0741
G01 X21.4817 Y-113.1231
G01 X21.4901 Y-113.1282
G01 X21.5680 Y-113.1698
G01 X21.5769 Y-113.1740
G01 X21.6585 Y-113.2078
G01 X21.6678 Y-113.2111
G01 X21.7523 Y-113.2368
G01 X21.7618 Y-113.2392
G01 X21.8484 Y-113.2564
G01 X21.8581 Y-113.2578
G01 X21.9460 Y-113.2665
G01 X22.0000 Y-113.2680
G01 X141.0000 Y-113.2680
G01 X141.0540 Y-113.2665
G01 X141.1419 Y-113.2578
G01 X141.1516 Y-113.2564
G01 X141.2382 Y-113.2392
G01 X141.2477 Y-113.2368
G01 X141.3322 Y-113.2111
G01 X141.3415 Y-113.2078
G01 X141.4231 Y-113.1740
G01 X141.4320 Y-113.1698
G01 X141.5099 Y-113.1282
G01 X141.5183 Y-113.1231
G01 X141.5917 Y-113.0741
G01 X141.5996 Y-113.0682
G01 X141.6679 Y-113.0122
G01 X141.6751 Y-113.0056
G01 X141.7376 Y-112.9431
G01 X141.7442 Y-112.9359
G01 X141.8002 Y-112.8676
G01 X141.8061 Y-112.8597
G01 X141.8551 Y-112.7863
G01 X141.8602 Y-112.7779
G01 X141.9018 Y-112.7000
G01 X141.9060 Y-112.6911
G01 X141.9398 Y-112.6095
G01 X141.9431 Y-112.6002
G01 X141.9688 Y-112.5157
G01 X141.9712 Y-112.5062
G01 X141.9884 Y-112.4196
G01 X141.9898 Y-112.4099
G01 X141.9985 Y-112.3220
G01 X141.9990 Y-112.3122
G01 X141.9990 Y-112.2238
G01 X141.9985 Y-112.2140
G01 X141.9898 Y-112.1261
G01 X141.9884 Y-112.1164
G01 X141.9750 Y-112.0493
G01 X141.9773 Y-32.7071
G01 X141.9884 Y-32.6516
G01 X141.9898 Y-32.6419
G01 X141.9985 Y-32.5540
G01 X141.9990 Y-32.5442
G01 X141.9990 Y-32.4558
G01 X141.9985 Y-32.4460
G01 X141.9898 Y-32.3581
G01 X141.9884 Y-32.3484
G01 X141.9712 Y-32.2618
G01 X141.9688 Y-32.2523
G01 X141.9431 Y-32.1678
G01 X141.9398 Y-32.1585
G01 X141.9060 Y-32.0769
G01 X141.9018 Y-32.0680
G01 X141.8602 Y-31.9901
G01 X141.8551 Y-31.9817
G01 X141.8061 Y-31.9083
G01 X141.8002 Y-31.9004
G01 X141.7442 Y-31.8321
G01 X141.7376 Y-31.8249
G01 X141.6751 Y-31.7624
G01 X141.6679 Y-31.7558
G01 X141.5996 Y-31.6998
G01 X141.5917 Y-31.6939
G01 X141.5183 Y-31.6449
G01 X141.5099 Y-31.6398
G01 X141.4320 Y-31.5982
G01 X141.4231 Y-31.5940
G01 X141.3415 Y-31.5602
G01 X141.3322 Y-31.5569
G01 X141.2477 Y-31.5312
G01 X141.2382 Y-31.5288
G01 X141.1516 Y-31.5116
G01 X141.1419 Y-31.5102
G01 X141.0540 Y-31.5015
G01 X141.0000 Y-31.5000
G01 X22.0000 Y-31.5000
G01 X21.9460 Y-31.5015
G01 X21.8581 Y-31.5102
G01 X21.8484 Y-31.5116
G01 X21.7618 Y-31.5288
G01 X21.7523 Y-31.5312
G01 X21.6678 Y-31.5569
G01 X21.6585 Y-31.5602
G01 X21.5769 Y-31.5940
G01 X21.5680 Y-31.5982
G01 X21.4901 Y-31.6398
G01 X21.4817 Y-31.6449
G01 X21.4083 Y-31.6939
G01 X21.4004 Y-31.6998
G01 X21.3321 Y-31.7558
G01 X21.3249 Y-31.7624
G01 X21.2624 Y-31.8249
G01 X21.2558 Y-31.8321
G01 X21.1998 Y-31.9004
G01 X21.1939 Y-31.9083
G01 X21.1449 Y-31.9817
G01 X21.1398 Y-31.9901
G01 X21.0982 Y-32.0680
G01 X21.0940 Y-32.0769
G01 X21.0602 Y-32.1585
G01 X21.0569 Y-32.1678
G01 X21.0312 Y-32.2523
G01 X21.0288 Y-32.2618
G01 X21.0116 Y-32.3484
G01 X21.0102 Y-32.3581
G01 X21.0015 Y-32.4460
G01 X21.0010 Y-32.4558
G01 X21.0010 Y-32.5442
G01 X21.0015 Y-32.5540
G01 X21.0102 Y-32.6419
G01 X21.0116 Y-32.6516
G01 X21.0249 Y-32.7182
G00 X21.0249 Y-32.7182
G01 F60.00
G01 Z-8.8000
G01 F60.00
G01 X20.9960 Y-77.4700
G01 X20.9960 Y-96.1390
G01 X20.9974 Y-96.1905
G01 X21.0061 Y-96.2784
G01 X21.0071 Y-96.2857
G01 X21.0250 Y-96.3747
G01 X21.0250 Y-112.0493
G01 X21.0116 Y-112.1164
G01 X21.0102 Y-112.1261
G01 X21.0015 Y-112.2140
G01 X21.0010 Y-112.2238
G01 X21.0010 Y-112.3122
G01 X21.0015 Y-112.3220
G01 X21.0102 Y-112.4099
G01 X21.0116 Y-112.4196
G01 X21.0288 Y-112.5062
G01 X21.0312 Y-112.5157
G01 X21.0569 Y-112.6002
G01 X21.0602 Y-112.6095
G01 X21.0940 Y-112.6911
G01 X21.0982 Y-112.7000
G01 X21.1398 Y-112.7779
G01 X21.1449 Y-112.7863
G01 X21.1939 Y-112.8597
G01 X21.1998 Y-112.8676
G01 X21.2558 Y-112.9359
G01 X21.2624 Y-112.9431
G01 X21.3249 Y-113.0056
G01 X21.3321 Y-113.0122
G01 X21.4004 Y-113.0682
G01 X21.4083 Y-113.0741
G01 X21.4817 Y-113.1231
G01 X21.4901 Y-113.1282
G01 X21.5680 Y-113.1698
G01 X21.5769 Y-113.1740
G01 X21.6585 Y-113.2078
G01 X21.6678 Y-113.2111
G01 X21.7523 Y-113.2368
G01 X21.7618 Y-113.2392
G01 X21.8484 Y-113.2564
G01 X21.8581 Y-113.2578
G01 X21.9460 Y-113.2665
G01 X22.0000 Y-113.2680
G01 X141.0000 Y-113.2680
G01 X141.0540 Y-113.2665
G01 X141.1419 Y-113.2578
G01 X141.1516 Y-113.2564
G01 X141.2382 Y-113.2392
G01 X141.2477 Y-113.2368
G01 X141.3322 Y-113.2111
G01 X141.3415 Y-113.2078
G01 X141.4231 Y-113.1740
G01 X141.4320 Y-113.1698
G01 X141.5099 Y-113.1282
G01 X141.5183 Y-113.1231
G01 X141.5917 Y-113.0741
G01 X141.5996 Y-113.0682
G01 X141.6679 Y-113.0122
G01 X141.6751 Y-113.0056
G01 X141.7376 Y-112.9431
G01 X141.7442 Y-112.9359
G01 X141.8002 Y-112.8676
G01 X141.8061 Y-112.8597
G01 X141.8551 Y-112.7863
G01 X141.8602 Y-112.7779
G01 X141.9018 Y-112.7000
G01 X141.9060 Y-112.6911
G01 X141.9398 Y-112.6095
G01 X141.9431 Y-112.6002
G01 X141.9688 Y-112.5157
G01 X141.9712 Y-112.5062
G01 X141.9884 Y-112.4196
G01 X141.9898 Y-112.4099
G01 X141.9985 Y-112.3220
G01 X141.9990 Y-112.3122
G01 X141.9990 Y-112.2238
G01 X141.9985 Y-112.2140
G01 X141.9898 Y-112.1261
G01 X141.9884 Y-112.1164
G01 X141.9750 Y-112.0493
G01 X141.9773 Y-32.7071
G01 X141.9884 Y-32.6516
G01 X141.9898 Y-32.6419
G01 X141.9985 Y-32.5540
G01 X141.9990 Y-32.5442
G01 X141.9990 Y-32.4558
G01 X141.9985 Y-32.4460
G01 X141.9898 Y-32.3581
G01 X141.9884 Y-32.3484
G01 X141.9712 Y-32.2618
G01 X141.9688 Y-32.2523
G01 X141.9431 Y-32.1678
G01 X141.9398 Y-32.1585
G01 X141.9060 Y-32.0769
G01 X141.9018 Y-32.0680
G01 X141.8602 Y-31.9901
G01 X141.8551 Y-31.9817
G01 X141.8061 Y-31.9083
G01 X141.8002 Y-31.9004
G01 X141.7442 Y-31.8321
G01 X141.7376 Y-31.8249
G01 X141.6751 Y-31.7624
G01 X141.6679 Y-31.7558
G01 X141.5996 Y-31.6998
G01 X141.5917 Y-31.6939
G01 X141.5183 Y-31.6449
G01 X141.5099 Y-31.6398
G01 X141.4320 Y-31.5982
G01 X141.4231 Y-31.5940
G01 X141.3415 Y-31.5602
G01 X141.3322 Y-31.5569
G01 X141.2477 Y-31.5312
G01 X141.2382 Y-31.5288
G01 X141.1516 Y-31.5116
G01 X141.1419 Y-31.5102
G01 X141.0540 Y-31.5015
G01 X141.0000 Y-31.5000
G01 X22.0000 Y-31.5000
G01 X21.9460 Y-31.5015
G01 X21.8581 Y-31.5102
G01 X21.8484 Y-31.5116
G01 X21.7618 Y-31.5288
G01 X21.7523 Y-31.5312
G01 X21.6678 Y-31.5569
G01 X21.6585 Y-31.5602
G01 X21.5769 Y-31.5940
G01 X21.5680 Y-31.5982
G01 X21.4901 Y-31.6398
G01 X21.4817 Y-31.6449
G01 X21.4083 Y-31.6939
G01 X21.4004 Y-31.6998
G01 X21.3321 Y-31.7558
G01 X21.3249 Y-31.7624
G01 X21.2624 Y-31.8249
G01 X21.2558 Y-31.8321
G01 X21.1998 Y-31.9004
G01 X21.1939 Y-31.9083
G01 X21.1449 Y-31.9817
G01 X21.1398 Y-31.9901
G01 X21.0982 Y-32.0680
G01 X21.0940 Y-32.0769
G01 X21.0602 Y-32.1585
G01 X21.0569 Y-32.1678
G01 X21.0312 Y-32.2523
G01 X21.0288 Y-32.2618
G01 X21.0116 Y-32.3484
G01 X21.0102 Y-32.3581
G01 X21.0015 Y-32.4460
G01 X21.0010 Y-32.4558
G01 X21.0010 Y-32.5442
G01 X21.0015 Y-32.5540
G01 X21.0102 Y-32.6419
G01 X21.0116 Y-32.6516
G01 X21.0249 Y-32.7182
G00 X21.0249 Y-32.7182
G01 F60.00
G01 Z-9.6000
G01 F60.00
G01 X20.9960 Y-77.4700
G01 X20.9960 Y-96.1390
G01 X20.9974 Y-96.1905
G01 X21.0061 Y-96.2784
G01 X21.0071 Y-96.2857
G01 X21.0250 Y-96.3747
G01 X21.0250 Y-112.0493
G01 X21.0116 Y-112.1164
G01 X21.0102 Y-112.1261
G01 X21.0015 Y-112.2140
G01 X21.0010 Y-112.2238
G01 X21.0010 Y-112.3122
G01 X21.0015 Y-112.3220
G01 X21.0102 Y-112.4099
G01 X21.0116 Y-112.4196
G01 X21.0288 Y-112.5062
G01 X21.0312 Y-112.5157
G01 X21.0569 Y-112.6002
G01 X21.0602 Y-112.6095
G01 X21.0940 Y-112.6911
G01 X21.0982 Y-112.7000
G01 X21.1398 Y-112.7779
G01 X21.1449 Y-112.7863
G01 X21.1939 Y-112.8597
G01 X21.1998 Y-112.8676
G01 X21.2558 Y-112.9359
G01 X21.2624 Y-112.9431
G01 X21.3249 Y-113.0056
G01 X21.3321 Y-113.0122
G01 X21.4004 Y-113.0682
G01 X21.4083 Y-113.0741
G01 X21.4817 Y-113.1231
G01 X21.4901 Y-113.1282
G01 X21.5680 Y-113.1698
G01 X21.5769 Y-113.1740
G01 X21.6585 Y-113.2078
G01 X21.6678 Y-113.2111
G01 X21.7523 Y-113.2368
G01 X21.7618 Y-113.2392
G01 X21.8484 Y-113.2564
G01 X21.8581 Y-113.2578
G01 X21.9460 Y-113.2665
G01 X22.0000 Y-113.2680
G01 X141.0000 Y-113.2680
G01 X141.0540 Y-113.2665
G01 X141.1419 Y-113.2578
G01 X141.1516 Y-113.2564
G01 X141.2382 Y-113.2392
G01 X141.2477 Y-113.2368
G01 X141.3322 Y-113.2111
G01 X141.3415 Y-113.2078
G01 X141.4231 Y-113.1740
G01 X141.4320 Y-113.1698
G01 X141.5099 Y-113.1282
G01 X141.5183 Y-113.1231
G01 X141.5917 Y-113.0741
G01 X141.5996 Y-113.0682
G01 X141.6679 Y-113.0122
G01 X141.6751 Y-113.0056
G01 X141.7376 Y-112.9431
G01 X141.7442 Y-112.9359
G01 X141.8002 Y-112.8676
G01 X141.8061 Y-112.8597
G01 X141.8551 Y-112.7863
G01 X141.8602 Y-112.7779
G01 X141.9018 Y-112.7000
G01 X141.9060 Y-112.6911
G01 X141.9398 Y-112.6095
G01 X141.9431 Y-112.6002
G01 X141.9688 Y-112.5157
G01 X141.9712 Y-112.5062
G01 X141.9884 Y-112.4196
G01 X141.9898 Y-112.4099
G01 X141.9985 Y-112.3220
G01 X141.9990 Y-112.3122
G01 X141.9990 Y-112.2238
G01 X141.9985 Y-112.2140
G01 X141.9898 Y-112.1261
G01 X141.9884 Y-112.1164
G01 X141.9750 Y-112.0493
G01 X141.9773 Y-32.7071
G01 X141.9884 Y-32.6516
G01 X141.9898 Y-32.6419
G01 X141.9985 Y-32.5540
G01 X141.9990 Y-32.5442
G01 X141.9990 Y-32.4558
G01 X141.9985 Y-32.4460
G01 X141.9898 Y-32.3581
G01 X141.9884 Y-32.3484
G01 X141.9712 Y-32.2618
G01 X141.9688 Y-32.2523
G01 X141.9431 Y-32.1678
G01 X141.9398 Y-32.1585
G01 X141.9060 Y-32.0769
G01 X141.9018 Y-32.0680
G01 X141.8602 Y-31.9901
G01 X141.8551 Y-31.9817
G01 X141.8061 Y-31.9083
G01 X141.8002 Y-31.9004
G01 X141.7442 Y-31.8321
G01 X141.7376 Y-31.8249
G01 X141.6751 Y-31.7624
G01 X141.6679 Y-31.7558
G01 X141.5996 Y-31.6998
G01 X141.5917 Y-31.6939
G01 X141.5183 Y-31.6449
G01 X141.5099 Y-31.6398
G01 X141.4320 Y-31.5982
G01 X141.4231 Y-31.5940
G01 X141.3415 Y-31.5602
G01 X141.3322 Y-31.5569
G01 X141.2477 Y-31.5312
G01 X141.2382 Y-31.5288
G01 X141.1516 Y-31.5116
G01 X141.1419 Y-31.5102
G01 X141.0540 Y-31.5015
G01 X141.0000 Y-31.5000
G01 X22.0000 Y-31.5000
G01 X21.9460 Y-31.5015
G01 X21.8581 Y-31.5102
G01 X21.8484 Y-31.5116
G01 X21.7618 Y-31.5288
G01 X21.7523 Y-31.5312
G01 X21.6678 Y-31.5569
G01 X21.6585 Y-31.5602
G01 X21.5769 Y-31.5940
G01 X21.5680 Y-31.5982
G01 X21.4901 Y-31.6398
G01 X21.4817 Y-31.6449
G01 X21.4083 Y-31.6939
G01 X21.4004 Y-31.6998
G01 X21.3321 Y-31.7558
G01 X21.3249 Y-31.7624
G01 X21.2624 Y-31.8249
G01 X21.2558 Y-31.8321
G01 X21.1998 Y-31.9004
G01 X21.1939 Y-31.9083
G01 X21.1449 Y-31.9817
G01 X21.1398 Y-31.9901
G01 X21.0982 Y-32.0680
G01 X21.0940 Y-32.0769
G01 X21.0602 Y-32.1585
G01 X21.0569 Y-32.1678
G01 X21.0312 Y-32.2523
G01 X21.0288 Y-32.2618
G01 X21.0116 Y-32.3484
G01 X21.0102 Y-32.3581
G01 X21.0015 Y-32.4460
G01 X21.0010 Y-32.4558
G01 X21.0010 Y-32.5442
G01 X21.0015 Y-32.5540
G01 X21.0102 Y-32.6419
G01 X21.0116 Y-32.6516
G01 X21.0249 Y-32.7182
G00 X21.0249 Y-32.7182
G01 F60.00
G01 Z-10.4000
G01 F60.00
G01 X20.9960 Y-77.4700
G01 X20.9960 Y-96.1390
G01 X20.9974 Y-96.1905
G01 X21.0061 Y-96.2784
G01 X21.0071 Y-96.2857
G01 X21.0250 Y-96.3747
G01 X21.0250 Y-112.0493
G01 X21.0116 Y-112.1164
G01 X21.0102 Y-112.1261
G01 X21.0015 Y-112.2140
G01 X21.0010 Y-112.2238
G01 X21.0010 Y-112.3122
G01 X21.0015 Y-112.3220
G01 X21.0102 Y-112.4099
G01 X21.0116 Y-112.4196
G01 X21.0288 Y-112.5062
G01 X21.0312 Y-112.5157
G01 X21.0569 Y-112.6002
G01 X21.0602 Y-112.6095
G01 X21.0940 Y-112.6911
G01 X21.0982 Y-112.7000
G01 X21.1398 Y-112.7779
G01 X21.1449 Y-112.7863
G01 X21.1939 Y-112.8597
G01 X21.1998 Y-112.8676
G01 X21.2558 Y-112.9359
G01 X21.2624 Y-112.9431
G01 X21.3249 Y-113.0056
G01 X21.3321 Y-113.0122
G01 X21.4004 Y-113.0682
G01 X21.4083 Y-113.0741
G01 X21.4817 Y-113.1231
G01 X21.4901 Y-113.1282
G01 X21.5680 Y-113.1698
G01 X21.5769 Y-113.1740
G01 X21.6585 Y-113.2078
G01 X21.6678 Y-113.2111
G01 X21.7523 Y-113.2368
G01 X21.7618 Y-113.2392
G01 X21.8484 Y-113.2564
G01 X21.8581 Y-113.2578
G01 X21.9460 Y-113.2665
G01 X22.0000 Y-113.2680
G01 X141.0000 Y-113.2680
G01 X141.0540 Y-113.2665
G01 X141.1419 Y-113.2578
G01 X141.1516 Y-113.2564
G01 X141.2382 Y-113.2392
G01 X141.2477 Y-113.2368
G01 X141.3322 Y-113.2111
G01 X141.3415 Y-113.2078
G01 X141.4231 Y-113.1740
G01 X141.4320 Y-113.1698
G01 X141.5099 Y-113.1282
G01 X141.5183 Y-113.1231
G01 X141.5917 Y-113.0741
G01 X141.5996 Y-113.0682
G01 X141.6679 Y-113.0122
G01 X141.6751 Y-113.0056
G01 X141.7376 Y-112.9431
G01 X141.7442 Y-112.9359
G01 X141.8002 Y-112.8676
G01 X141.8061 Y-112.8597
G01 X141.8551 Y-112.7863
G01 X141.8602 Y-112.7779
G01 X141.9018 Y-112.7000
G01 X141.9060 Y-112.6911
G01 X141.9398 Y-112.6095
G01 X141.9431 Y-112.6002
G01 X141.9688 Y-112.5157
G01 X141.9712 Y-112.5062
G01 X141.9884 Y-112.4196
G01 X141.9898 Y-112.4099
G01 X141.9985 Y-112.3220
G01 X141.9990 Y-112.3122
G01 X141.9990 Y-112.2238
G01 X141.9985 Y-112.2140
G01 X141.9898 Y-112.1261
G01 X141.9884 Y-112.1164
G01 X141.9750 Y-112.0493
G01 X141.9773 Y-32.7071
G01 X141.9884 Y-32.6516
G01 X141.9898 Y-32.6419
G01 X141.9985 Y-32.5540
G01 X141.9990 Y-32.5442
G01 X141.9990 Y-32.4558
G01 X141.9985 Y-32.4460
G01 X141.9898 Y-32.3581
G01 X141.9884 Y-32.3484
G01 X141.9712 Y-32.2618
G01 X141.9688 Y-32.2523
G01 X141.9431 Y-32.1678
G01 X141.9398 Y-32.1585
G01 X141.9060 Y-32.0769
G01 X141.9018 Y-32.0680
G01 X141.8602 Y-31.9901
G01 X141.8551 Y-31.9817
G01 X141.8061 Y-31.9083
G01 X141.8002 Y-31.9004
G01 X141.7442 Y-31.8321
G01 X141.7376 Y-31.8249
G01 X141.6751 Y-31.7624
G01 X141.6679 Y-31.7558
G01 X141.5996 Y-31.6998
G01 X141.5917 Y-31.6939
G01 X141.5183 Y-31.6449
G01 X141.5099 Y-31.6398
G01 X141.4320 Y-31.5982
G01 X141.4231 Y-31.5940
G01 X141.3415 Y-31.5602
G01 X141.3322 Y-31.5569
G01 X141.2477 Y-31.5312
G01 X141.2382 Y-31.5288
G01 X141.1516 Y-31.5116
G01 X141.1419 Y-31.5102
G01 X141.0540 Y-31.5015
G01 X141.0000 Y-31.5000
G01 X22.0000 Y-31.5000
G01 X21.9460 Y-31.5015
G01 X21.8581 Y-31.5102
G01 X21.8484 Y-31.5116
G01 X21.7618 Y-31.5288
G01 X21.7523 Y-31.5312
G01 X21.6678 Y-31.5569
G01 X21.6585 Y-31.5602
G01 X21.5769 Y-31.5940
G01 X21.5680 Y-31.5982
G01 X21.4901 Y-31.6398
G01 X21.4817 Y-31.6449
G01 X21.4083 Y-31.6939
G01 X21.4004 Y-31.6998
G01 X21.3321 Y-31.7558
G01 X21.3249 Y-31.7624
G01 X21.2624 Y-31.8249
G01 X21.2558 Y-31.8321
G01 X21.1998 Y-31.9004
G01 X21.1939 Y-31.9083
G01 X21.1449 Y-31.9817
G01 X21.1398 Y-31.9901
G01 X21.0982 Y-32.0680
G01 X21.0940 Y-32.0769
G01 X21.0602 Y-32.1585
G01 X21.0569 Y-32.1678
G01 X21.0312 Y-32.2523
G01 X21.0288 Y-32.2618
G01 X21.0116 Y-32.3484
G01 X21.0102 Y-32.3581
G01 X21.0015 Y-32.4460
G01 X21.0010 Y-32.4558
G01 X21.0010 Y-32.5442
G01 X21.0015 Y-32.5540
G01 X21.0102 Y-32.6419
G01 X21.0116 Y-32.6516
G01 X21.0249 Y-32.7182
G00 X21.0249 Y-32.7182
G01 F60.00
G01 Z-10.8000
G01 F60.00
G01 X20.9960 Y-77.4700
G01 X20.9960 Y-96.1390
G01 X20.9974 Y-96.1905
G01 X21.0061 Y-96.2784
G01 X21.0071 Y-96.2857
G01 X21.0250 Y-96.3747
G01 X21.0250 Y-112.0493
G01 X21.0116 Y-112.1164
G01 X21.0102 Y-112.1261
G01 X21.0015 Y-112.2140
G01 X21.0010 Y-112.2238
G01 X21.0010 Y-112.3122
G01 X21.0015 Y-112.3220
G01 X21.0102 Y-112.4099
G01 X21.0116 Y-112.4196
G01 X21.0288 Y-112.5062
G01 X21.0312 Y-112.5157
G01 X21.0569 Y-112.6002
G01 X21.0602 Y-112.6095
G01 X21.0940 Y-112.6911
G01 X21.0982 Y-112.7000
G01 X21.1398 Y-112.7779
G01 X21.1449 Y-112.7863
G01 X21.1939 Y-112.8597
G01 X21.1998 Y-112.8676
G01 X21.2558 Y-112.9359
G01 X21.2624 Y-112.9431
G01 X21.3249 Y-113.0056
G01 X21.3321 Y-113.0122
G01 X21.4004 Y-113.0682
G01 X21.4083 Y-113.0741
G01 X21.4817 Y-113.1231
G01 X21.4901 Y-113.1282
G01 X21.5680 Y-113.1698
G01 X21.5769 Y-113.1740
G01 X21.6585 Y-113.2078
G01 X21.6678 Y-113.2111
G01 X21.7523 Y-113.2368
G01 X21.7618 Y-113.2392
G01 X21.8484 Y-113.2564
G01 X21.8581 Y-113.2578
G01 X21.9460 Y-113.2665
G01 X22.0000 Y-113.2680
G01 X141.0000 Y-113.2680
G01 X141.0540 Y-113.2665
G01 X141.1419 Y-113.2578
G01 X141.1516 Y-113.2564
G01 X141.2382 Y-113.2392
G01 X141.2477 Y-113.2368
G01 X141.3322 Y-113.2111
G01 X141.3415 Y-113.2078
G01 X141.4231 Y-113.1740
G01 X141.4320 Y-113.1698
G01 X141.5099 Y-113.1282
G01 X141.5183 Y-113.1231
G01 X141.5917 Y-113.0741
G01 X141.5996 Y-113.0682
G01 X141.6679 Y-113.0122
G01 X141.6751 Y-113.0056
G01 X141.7376 Y-112.9431
G01 X141.7442 Y-112.9359
G01 X141.8002 Y-112.8676
G01 X141.8061 Y-112.8597
G01 X141.8551 Y-112.7863
G01 X141.8602 Y-112.7779
G01 X141.9018 Y-112.7000
G01 X141.9060 Y-112.6911
G01 X141.9398 Y-112.6095
G01 X141.9431 Y-112.6002
G01 X141.9688 Y-112.5157
G01 X141.9712 Y-112.5062
G01 X141.9884 Y-112.4196
G01 X141.9898 Y-112.4099
G01 X141.9985 Y-112.3220
G01 X141.9990 Y-112.3122
G01 X141.9990 Y-112.2238
G01 X141.9985 Y-112.2140
G01 X141.9898 Y-112.1261
G01 X141.9884 Y-112.1164
G01 X141.9750 Y-112.0493
G01 X141.9773 Y-32.7071
G01 X141.9884 Y-32.6516
G01 X141.9898 Y-32.6419
G01 X141.9985 Y-32.5540
G01 X141.9990 Y-32.5442
G01 X141.9990 Y-32.4558
G01 X141.9985 Y-32.4460
G01 X141.9898 Y-32.3581
G01 X141.9884 Y-32.3484
G01 X141.9712 Y-32.2618
G01 X141.9688 Y-32.2523
G01 X141.9431 Y-32.1678
G01 X141.9398 Y-32.1585
G01 X141.9060 Y-32.0769
G01 X141.9018 Y-32.0680
G01 X141.8602 Y-31.9901
G01 X141.8551 Y-31.9817
G01 X141.8061 Y-31.9083
G01 X141.8002 Y-31.9004
G01 X141.7442 Y-31.8321
G01 X141.7376 Y-31.8249
G01 X141.6751 Y-31.7624
G01 X141.6679 Y-31.7558
G01 X141.5996 Y-31.6998
G01 X141.5917 Y-31.6939
G01 X141.5183 Y-31.6449
G01 X141.5099 Y-31.6398
G01 X141.4320 Y-31.5982
G01 X141.4231 Y-31.5940
G01 X141.3415 Y-31.5602
G01 X141.3322 Y-31.5569
G01 X141.2477 Y-31.5312
G01 X141.2382 Y-31.5288
G01 X141.1516 Y-31.5116
G01 X141.1419 Y-31.5102
G01 X141.0540 Y-31.5015
G01 X141.0000 Y-31.5000
G01 X22.0000 Y-31.5000
G01 X21.9460 Y-31.5015
G01 X21.8581 Y-31.5102
G01 X21.8484 Y-31.5116
G01 X21.7618 Y-31.5288
G01 X21.7523 Y-31.5312
G01 X21.6678 Y-31.5569
G01 X21.6585 Y-31.5602
G01 X21.5769 Y-31.5940
G01 X21.5680 Y-31.5982
G01 X21.4901 Y-31.6398
G01 X21.4817 Y-31.6449
G01 X21.4083 Y-31.6939
G01 X21.4004 Y-31.6998
G01 X21.3321 Y-31.7558
G01 X21.3249 Y-31.7624
G01 X21.2624 Y-31.8249
G01 X21.2558 Y-31.8321
G01 X21.1998 Y-31.9004
G01 X21.1939 Y-31.9083
G01 X21.1449 Y-31.9817
G01 X21.1398 Y-31.9901
G01 X21.0982 Y-32.0680
G01 X21.0940 Y-32.0769
G01 X21.0602 Y-32.1585
G01 X21.0569 Y-32.1678
G01 X21.0312 Y-32.2523
G01 X21.0288 Y-32.2618
G01 X21.0116 Y-32.3484
G01 X21.0102 Y-32.3581
G01 X21.0015 Y-32.4460
G01 X21.0010 Y-32.4558
G01 X21.0010 Y-32.5442
G01 X21.0015 Y-32.5540
G01 X21.0102 Y-32.6419
G01 X21.0116 Y-32.6516
G01 X21.0249 Y-32.7182
G00 Z5.0000
G00 X22.9463 Y-95.3965
G01 F60.00
G01 Z-0.8000
G01 F60.00
G01 X22.9639 Y-95.4843
G01 X22.9649 Y-95.4916
G01 X22.9736 Y-95.5795
G01 X22.9750 Y-95.6310
G01 X22.9750 Y-111.2679
G01 X140.0250 Y-111.2680
G01 X140.0250 Y-33.5001
G01 X22.9750 Y-33.5000
G01 X22.9750 Y-77.4700
G01 X22.9463 Y-95.3965
G00 X22.9463 Y-95.3965
G01 F60.00
G01 Z-1.6000
G01 F60.00
G01 X22.9639 Y-95.4843
G01 X22.9649 Y-95.4916
G01 X22.9736 Y-95.5795
G01 X22.9750 Y-95.6310
G01 X22.9750 Y-111.2679
G01 X140.0250 Y-111.2680
G01 X140.0250 Y-33.5001
G01 X22.9750 Y-33.5000
G01 X22.9750 Y-77.4700
G01 X22.9463 Y-95.3965
G00 X22.9463 Y-95.3965
G01 F60.00
G01 Z-2.4000
G01 F60.00
G01 X22.9639 Y-95.4843
G01 X22.9649 Y-95.4916
G01 X22.9736 Y-95.5795
G01 X22.9750 Y-95.6310
G01 X22.9750 Y-111.2679
G01 X140.0250 Y-111.2680
G01 X140.0250 Y-33.5001
G01 X22.9750 Y-33.5000
G01 X22.9750 Y-77.4700
G01 X22.9463 Y-95.3965
G00 X22.9463 Y-95.3965
G01 F60.00
G01 Z-3.2000
G01 F60.00
G01 X22.9639 Y-95.4843
G01 X22.9649 Y-95.4916
G01 X22.9736 Y-95.5795
G01 X22.9750 Y-95.6310
G01 X22.9750 Y-111.2679
G01 X140.0250 Y-111.2680
G01 X140.0250 Y-33.5001
G01 X22.9750 Y-33.5000
G01 X22.9750 Y-77.4700
G01 X22.9463 Y-95.3965
G00 X22.9463 Y-95.3965
G01 F60.00
G01 Z-4.0000
G01 F60.00
G01 X22.9639 Y-95.4843
G01 X22.9649 Y-95.4916
G01 X22.9736 Y-95.5795
G01 X22.9750 Y-95.6310
G01 X22.9750 Y-111.2679
G01 X140.0250 Y-111.2680
G01 X140.0250 Y-33.5001
G01 X22.9750 Y-33.5000
G01 X22.9750 Y-77.4700
G01 X22.9463 Y-95.3965
G00 X22.9463 Y-95.3965
G01 F60.00
G01 Z-4.8000
G01 F60.00
G01 X22.9639 Y-95.4843
G01 X22.9649 Y-95.4916
G01 X22.9736 Y-95.5795
G01 X22.9750 Y-95.6310
G01 X22.9750 Y-111.2679
G01 X140.0250 Y-111.2680
G01 X140.0250 Y-33.5001
G01 X22.9750 Y-33.5000
G01 X22.9750 Y-77.4700
G01 X22.9463 Y-95.3965
G00 X22.9463 Y-95.3965
G01 F60.00
G01 Z-5.6000
G01 F60.00
G01 X22.9639 Y-95.4843
G01 X22.9649 Y-95.4916
G01 X22.9736 Y-95.5795
G01 X22.9750 Y-95.6310
G01 X22.9750 Y-111.2679
G01 X140.0250 Y-111.2680
G01 X140.0250 Y-33.5001
G01 X22.9750 Y-33.5000
G01 X22.9750 Y-77.4700
G01 X22.9463 Y-95.3965
G00 X22.9463 Y-95.3965
G01 F60.00
G01 Z-6.4000
G01 F60.00
G01 X22.9639 Y-95.4843
G01 X22.9649 Y-95.4916
G01 X22.9736 Y-95.5795
G01 X22.9750 Y-95.6310
G01 X22.9750 Y-111.2679
G01 X140.0250 Y-111.2680
G01 X140.0250 Y-33.5001
G01 X22.9750 Y-33.5000
G01 X22.9750 Y-77.4700
G01 X22.9463 Y-95.3965
G00 X22.9463 Y-95.3965
G01 F60.00
G01 Z-7.2000
G01 F60.00
G01 X22.9639 Y-95.4843
G01 X22.9649 Y-95.4916
G01 X22.9736 Y-95.5795
G01 X22.9750 Y-95.6310
G01 X22.9750 Y-111.2679
G01 X140.0250 Y-111.2680
G01 X140.0250 Y-33.5001
G01 X22.9750 Y-33.5000
G01 X22.9750 Y-77.4700
G01 X22.9463 Y-95.3965
G00 X22.9463 Y-95.3965
G01 F60.00
G01 Z-8.0000
G01 F60.00
G01 X22.9639 Y-95.4843
G01 X22.9649 Y-95.4916
G01 X22.9736 Y-95.5795
G01 X22.9750 Y-95.6310
G01 X22.9750 Y-111.2679
G01 X140.0250 Y-111.2680
G01 X140.0250 Y-33.5001
G01 X22.9750 Y-33.5000
G01 X22.9750 Y-77.4700
G01 X22.9463 Y-95.3965
G00 X22.9463 Y-95.3965
G01 F60.00
G01 Z-8.8000
G01 F60.00
G01 X22.9639 Y-95.4843
G01 X22.9649 Y-95.4916
G01 X22.9736 Y-95.5795
G01 X22.9750 Y-95.6310
G01 X22.9750 Y-111.2679
G01 X140.0250 Y-111.2680
G01 X140.0250 Y-33.5001
G01 X22.9750 Y-33.5000
G01 X22.9750 Y-77.4700
G01 X22.9463 Y-95.3965
G00 X22.9463 Y-95.3965
G01 F60.00
G01 Z-9.6000
G01 F60.00
G01 X22.9639 Y-95.4843
G01 X22.9649 Y-95.4916
G01 X22.9736 Y-95.5795
G01 X22.9750 Y-95.6310
G01 X22.9750 Y-111.2679
G01 X140.0250 Y-111.2680
G01 X140.0250 Y-33.5001
G01 X22.9750 Y-33.5000
G01 X22.9750 Y-77.4700
G01 X22.9463 Y-95.3965
G00 X22.9463 Y-95.3965
G01 F60.00
G01 Z-10.4000
G01 F60.00
G01 X22.9639 Y-95.4843
G01 X22.9649 Y-95.4916
G01 X22.9736 Y-95.5795
G01 X22.9750 Y-95.6310
G01 X22.9750 Y-111.2679
G01 X140.0250 Y-111.2680
G01 X140.0250 Y-33.5001
G01 X22.9750 Y-33.5000
G01 X22.9750 Y-77.4700
G01 X22.9463 Y-95.3965
G00 X22.9463 Y-95.3965
G01 F60.00
G01 Z-10.8000
G01 F60.00
G01 X22.9639 Y-95.4843
G01 X22.9649 Y-95.4916
G01 X22.9736 Y-95.5795
G01 X22.9750 Y-95.6310
G01 X22.9750 Y-111.2679
G01 X140.0250 Y-111.2680
G01 X140.0250 Y-33.5001
G01 X22.9750 Y-33.5000
G01 X22.9750 Y-77.4700
G01 X22.9463 Y-95.3965
G00 Z5.0000
M05
G00 Z5.0000
G00 Z15.00
G00 X0.0 Y0.0

