(G-CODE GENERATED BY FLATCAM v8.991 - www.flatcam.org - Version Date: 2019/12/27)

(Name: Perçage01_cnc)
(Type: G-code from Excellon)
(Units: MM)

(Created on Friday, 12 February 2021 at 18:15)

(Feedrate: 300.0 mm/min)
(Feedrate rapids 1500.0 mm/min)

(Z_Cut: -10.799999999999978 mm)
(Z_Move: 4.999999999999998 mm)
(Z Toolchange: 15.0 mm)
(X,Y Toolchange: 0.0000, 0.0000 mm)
(Z Start: None mm)
(Z End: 15.0 mm)
(Steps per circle: 64)
(Preprocessor Excellon: default)

(X range:   26.5011 ...  136.5009  mm)
(Y range: -105.5002 ...  -40.4990  mm)

(Spindle Speed: 600.0 RPM)
G21
G90
G94




G01 F300.00
G00 Z5.0000

M03 S600.0
G00 X5.0010 Y70.3011
G01 Z-10.8000
G01 Z0
G00 Z5.0000
G00 X5.0010 Y8.2997
G01 Z-10.8000
G01 Z0
G00 Z5.0000
G00 X112.0010 Y8.2997
G01 Z-10.8000
G01 Z0
G00 Z5.0000
G00 X112.0010 Y70.3011
G01 Z-10.8000
G01 Z0
G00 Z5.0000
M05
G00 Z15.00
G00 X0.0 Y0.0

